X:999
T:Baile Chano
C:Trad.
M:3/8
L:1/8
Q:3/8=84
K:G
|D G G|G A B|c c B|d c B|c2 B|A G2|
|A B c|B A G|B A2|
|D G G|G A B|c c B|d c B|c2 B|A G2|


